www/coins/rvn.svg

<svg xmlns="http://www.w3.org/2000/svg" width="32" height="32" viewBox="0 0 32 32">
  <path fill="#766054" fill-rule="evenodd" d="M16,32 C7.163444,32 0,24.836556 0,16 C0,7.163444 7.163444,0 16,0 C24.836556,0 32,7.163444 32,16 C32,24.836556 24.836556,32 16,32 Z M9.5,27 L15.1488143,22.8118162 L13.1180422,10.2111597 L9.5,27 Z M13.1880689,10.1148796 L15.2421832,22.7636761 L18.6851589,22.8238512 L13.1880689,10.1148796 Z M13.2697666,10.0185996 L18.8018699,22.8238512 L20.4708378,11.0415755 L13.2697666,10.0185996 Z M18.9302521,22.643326 L21.614606,12.4978118 L20.5525355,11.1498906 L18.9302521,22.643326 Z M20.4474956,10.9332604 L19.7472293,7.85229759 L13.421491,9.93435449 L20.4474956,10.9332604 Z M13.3864776,9.82603939 L19.7472293,7.74398249 L17.693115,6.84135667 L13.3864776,9.82603939 Z M13.2814377,9.78993435 L17.6230884,6.79321663 L14.1100861,8.20131291 L13.2814377,9.78993435 Z M14.1100861,8.12910284 L17.4013374,6.79321663 L14.5069036,6.88949672 L14.1100861,8.12910284 Z M14.4835614,6.79321663 L17.4246796,6.69693654 L15.4172497,5.79431072 L14.4835614,6.79321663 Z M15.4756053,5.73413567 L18.6851589,7.16630197 L16.8761377,5.04814004 L15.4756053,5.73413567 Z M17.0745465,5.13238512 L18.7901988,7.17833698 L19.1636741,6.04704595 L17.0745465,5.13238512 Z M18.8602254,7.21444201 L19.712216,7.64770241 L19.2453719,6.05908096 L18.8602254,7.21444201 Z M16.9228222,5 L19.1549159,5.91846316 C19.1795028,5.92858018 19.2076359,5.91685004 19.2177529,5.89226315 C19.2247961,5.87514644 19.2214021,5.85550747 19.2090227,5.8417474 L18.4517368,5 L16.9228222,5 Z M19.3387407,5.96280088 L19.8055849,7.69584245 L22.4484915,6.97055756 C22.4869502,6.96000347 22.5095713,6.9202708 22.4990172,6.88181217 C22.4923029,6.85734566 22.4732411,6.83819775 22.4488051,6.83137331 L19.3387407,5.96280088 Z"/>
</svg>

<svg xmlns="http://www.w3.org/2000/svg" width="32" height="32" viewBox="0 0 32 32"><path fill="#766054" fill-rule="evenodd" d="M16 32C7.163 32 0 24.837 0 16S7.163 0 16 0s16 7.163 16 16-7.163 16-16 16zm-6.5-5l5.649-4.188-2.031-12.6L9.5 27zm3.688-16.885l2.054 12.649 3.443.06-5.497-12.71zm.082-.096l5.532 12.805 1.669-11.782-7.201-1.023zm5.66 12.624l2.685-10.145-1.062-1.348-1.623 11.493zm1.517-11.71l-.7-3.08-6.326 2.081 7.026 1zm-7.06-1.107l6.36-2.082-2.054-.903-4.307 2.985zm-.106-.036l4.342-2.997-3.513 1.408-.829 1.589zm.83-1.66l3.29-1.337-2.894.096-.397 1.24zm.373-1.337l2.94-.096-2.007-.903-.933 1zm.992-1.059l3.21 1.432-1.81-2.118-1.4.686zm1.599-.602l1.715 2.046.374-1.131-2.09-.915zm1.785 2.082l.852.434-.467-1.589-.385 1.155zM16.923 5l2.232.918a.048.048 0 0 0 .054-.076L18.452 5h-1.53zm2.416.963l.467 1.733 2.642-.725a.072.072 0 0 0 0-.14l-3.11-.868z"/></svg>
